X:11
T:Wexford Carol, The
Z:From the playing of Peter McCavena and Drumlin
Z:John Walsh Dec 99
S:John Walsh <walsh:math.ubc.ca> irtrad-l 2001-12-7
M:6/4
L:1/8
Q:3/4=40
K:G
A|d2 d^c d4-d e fg|\
[M:4/4]
a4-a3 g|fd3 A3 B|\
[M:6/4]
c3 B c4-c2 z A|
d2 d^c d4-d efg|\
[M:4/4]
a4-a fga|\
[M:6/4]
f d3 ed3- d3^c|\
[M:4/4]
d6 ||
DD|\
[M:6/4]
=c3 A G4-G2 DE|=F3 E F4-F2 A2|G3 =F D6 A,B,|C3 B, C6 zA|
d2 d^c d4-d e fg|\
[M:4/4]
a4-a f ga|\
[M:6/4]
fd3 ed3-d3 ^c|\
[M:4/4]
d6||
